.icons/Gruvbox-Plus-Dark/apps/scalable/diablo-2.svg

<svg xmlns="http://www.w3.org/2000/svg" style="isolation:isolate" width="256" height="256" viewBox="0 0 256 256">
 <g filter="url(#wI9zIuINXkI3lenfHbxKwyDOIMhTeK7R)">
  <linearGradient id="_lgradient_36" x1="0" x2="0" y1="0" y2="1" gradientTransform="matrix(244.648309,0,0,228.338396,5.68,11.95)" gradientUnits="userSpaceOnUse">
   <stop offset="0%" style="stop-color:#504945"/>
   <stop offset="100%" style="stop-color:#3c3836"/>
  </linearGradient>
  <path fill="url(#_lgradient_36)" d="M 165.688919 11.95 C 239.744626 11.95 250.328309 22.507198 250.328309 96.493859 L 250.328309 155.744653 C 250.328309 229.73091 239.744626 240.288396 165.688919 240.288396 L 90.319393 240.288396 C 16.26369 240.288396 5.68 229.73091 5.68 155.744653 L 5.68 96.493859 C 5.68 22.507198 16.26369 11.95 90.319393 11.95 L 165.688919 11.95 Z"/>
 </g>
 <g opacity=".4">
  <linearGradient id="_lgradient_37" x1=".517" x2=".517" y1="0" y2="1" gradientTransform="matrix(244.65,0,0,228.34,5.68,11.95)" gradientUnits="userSpaceOnUse">
   <stop offset="0%" style="stop-color:#ebdbb2"/>
   <stop offset="12.5%" stop-opacity=".098" style="stop-color:#ebdbb2"/>
   <stop offset="92.5%" stop-opacity=".098" style="stop-color:#282828"/>
   <stop offset="100%" stop-opacity=".498" style="stop-color:#282828"/>
  </linearGradient>
  <path fill="url(#_lgradient_37)" fill-rule="evenodd" d="M 165.06803 11.951234 C 169.395994 11.941409 173.723944 11.990533 178.051908 12.088781 C 181.927398 12.167379 185.802873 12.31475 189.678362 12.540721 C 193.1309 12.737216 196.583423 13.022134 200.026115 13.395476 C 203.085193 13.729518 206.144271 14.181458 209.173842 14.741469 C 211.888645 15.242533 214.57394 15.881143 217.219897 16.6573 C 219.619947 17.354858 221.970814 18.219439 224.242988 19.241215 C 226.357793 20.184394 228.384061 21.304417 230.302129 22.591462 C 232.141505 23.829383 233.862851 25.244151 235.436659 26.80629 C 237.000621 28.378252 238.417046 30.087764 239.656409 31.924995 C 240.944972 33.840824 242.066305 35.864728 243.020409 37.967229 C 244.043389 40.246576 244.908985 42.584873 245.617197 44.972292 C 246.394255 47.615155 247.033606 50.297317 247.535265 53.008956 C 248.095924 56.034984 248.548399 59.080665 248.882828 62.13617 C 249.256611 65.574836 249.541856 69.013506 249.738578 72.462003 C 249.964823 76.323139 250.112361 80.194101 250.200884 84.055237 C 250.289421 88.378131 250.338591 92.701032 250.32876 97.014106 L 250.32876 155.225886 C 250.338591 159.54878 250.289421 163.861854 250.200884 168.184747 C 250.112361 172.05571 249.964823 175.916853 249.738578 179.777981 C 249.541856 183.226485 249.256611 186.674975 248.882828 190.103826 C 248.548399 193.15933 248.095924 196.214835 247.535265 199.240851 C 247.033606 201.942664 246.394255 204.624837 245.617197 207.267703 C 244.908985 209.655115 244.043389 212.003235 243.020409 214.272755 C 242.066305 216.38509 240.944972 218.399156 239.656409 220.314999 C 238.417046 222.152226 237.000621 223.871561 235.436659 225.433697 C 233.862851 226.995832 232.141505 228.410601 230.302129 229.648532 C 228.384061 230.935575 226.357793 232.055598 224.242988 232.998768 C 221.970814 234.020552 219.619947 234.885137 217.219897 235.592507 C 214.57394 236.368672 211.888645 237.007276 209.173842 237.498515 C 206.144271 238.068354 203.085193 238.510465 200.026115 238.844519 C 196.583423 239.21785 193.1309 239.502777 189.678362 239.699269 C 185.802873 239.925235 181.927398 240.072615 178.051908 240.161035 C 173.723944 240.249454 169.395994 240.298581 165.06803 240.288762 L 90.941963 240.288762 C 86.614006 240.298581 82.286049 240.249454 77.9581 240.161035 C 74.08261 240.072615 70.20712 239.925235 66.331638 239.699269 C 62.879108 239.502777 59.426578 239.21785 55.983886 238.844519 C 52.924808 238.510465 49.865733 238.068354 46.836162 237.498515 C 44.121356 237.007276 41.436057 236.368672 38.7901 235.592507 C 36.390053 234.885137 34.039187 234.020552 31.767009 232.998768 C 29.652213 232.055598 27.625943 230.935575 25.707871 229.648532 C 23.868489 228.410601 22.147143 226.995832 20.573343 225.433697 C 19.009377 223.871561 17.592955 222.152226 16.353586 220.314999 C 15.065036 218.399156 13.943701 216.38509 12.989584 214.272755 C 11.966612 212.003235 11.101021 209.655115 10.392811 207.267703 C 9.615746 204.624837 8.976389 201.942664 8.47474 199.240851 C 7.914072 196.214835 7.461604 193.15933 7.127172 190.103826 C 6.753394 186.674975 6.468142 183.226485 6.271417 179.777981 C 6.045183 175.916853 5.897639 172.05571 5.809112 168.184747 C 5.720586 163.861854 5.671405 159.54878 5.681241 155.225886 L 5.681241 97.014106 C 5.671405 92.701032 5.720586 88.378131 5.809112 84.055237 C 5.897639 80.194101 6.045183 76.323139 6.271417 72.462003 C 6.468142 69.013506 6.753394 65.574836 7.127172 62.13617 C 7.461604 59.080665 7.914072 56.034984 8.47474 53.008956 C 8.976389 50.297317 9.615746 47.615155 10.392811 44.972292 C 11.101021 42.584873 11.966612 40.246576 12.989584 37.967229 C 13.943701 35.864728 15.065036 33.840824 16.353586 31.924995 C 17.592955 30.087764 19.009377 28.378252 20.573343 26.80629 C 22.147143 25.244151 23.868489 23.829383 25.707871 22.591462 C 27.625943 21.304417 29.652213 20.184394 31.767009 19.241215 C 34.039187 18.219439 36.390053 17.354858 38.7901 16.6573 C 41.436057 15.881143 44.121356 15.242533 46.836162 14.741469 C 49.865733 14.181458 52.924808 13.729518 55.983886 13.395476 C 59.426578 13.022134 62.879108 12.737216 66.331638 12.540721 C 70.20712 12.31475 74.08261 12.167379 77.9581 12.088781 C 82.286049 11.990533 86.614006 11.941409 90.941963 11.951234 L 165.06803 11.951234 Z M 165.077876 15.959741 C 169.376317 15.949916 173.674759 15.99904 177.973216 16.087463 C 181.799522 16.175886 185.625827 16.323257 189.452133 16.539402 C 192.835809 16.735898 196.219486 17.010992 199.583486 17.384332 C 202.554026 17.698726 205.514751 18.131016 208.445953 18.681203 C 211.023049 19.152792 213.580483 19.761928 216.098564 20.498786 C 218.321569 21.147221 220.495374 21.952852 222.600334 22.896029 C 224.508571 23.750785 226.338116 24.762737 228.069293 25.922059 C 229.692286 27.012609 231.207063 28.260355 232.59398 29.645648 C 233.980897 31.030941 235.230091 32.543956 236.331763 34.165043 C 237.492434 35.894202 238.505568 37.711787 239.361333 39.607968 C 240.305606 41.720292 241.112187 43.891565 241.761369 46.102139 C 242.508934 48.617282 243.108947 51.161898 243.590914 53.735987 C 244.131912 56.663768 244.564709 59.6112 244.889308 62.578282 C 245.263091 65.938355 245.538505 69.308252 245.735227 72.687976 C 245.951626 76.509812 246.10901 80.321821 246.187687 84.143656 C 246.276225 88.437084 246.325394 92.720685 246.325394 97.014106 C 246.325394 97.014106 246.325394 97.014106 246.325394 97.014106 L 246.325394 155.225886 C 246.325394 155.225886 246.325394 155.225886 246.325394 155.225886 C 246.325394 159.519306 246.276225 163.802907 246.187687 168.096328 C 246.10901 171.918164 245.951626 175.739999 245.735227 179.552015 C 245.538505 182.931739 245.263091 186.301629 244.889308 189.671533 C 244.564709 192.628784 244.131912 195.576216 243.590914 198.503994 C 243.108947 201.078094 242.508934 203.622706 241.761369 206.137845 C 241.112187 208.358253 240.305606 210.5197 239.361333 212.63202 C 238.505568 214.528209 237.492434 216.355617 236.331763 218.074952 C 235.230091 219.705853 233.980897 221.218876 232.59398 222.604172 C 231.207063 223.979634 229.692286 225.227385 228.069293 226.317935 C 226.338116 227.477251 224.508571 228.489201 222.600334 229.343951 C 220.495374 230.296956 218.321569 231.092775 216.098564 231.741198 C 213.580483 232.478056 211.023049 233.087202 208.445953 233.558787 C 205.514751 234.108972 202.554026 234.541264 199.583486 234.865483 C 196.219486 235.228995 192.835809 235.513922 189.452133 235.70058 C 185.625827 235.916726 181.799522 236.073926 177.973216 236.152526 C 173.674759 236.25078 169.376317 236.290072 165.077876 236.290072 C 165.077876 236.290072 165.077876 236.290072 165.06803 236.290072 L 90.941963 236.290072 C 90.932125 236.290072 90.932125 236.290072 90.932125 236.290072 C 86.633683 236.290072 82.335234 236.25078 78.036784 236.152526 C 74.210479 236.073926 70.384173 235.916726 66.557868 235.70058 C 63.174195 235.513922 59.790522 235.228995 56.426518 234.865483 C 53.455967 234.541264 50.495253 234.108972 47.564048 233.558787 C 44.986944 233.087202 42.429517 232.478056 39.911433 231.741198 C 37.688439 231.092775 35.514626 230.296956 33.409665 229.343951 C 31.501429 228.489201 29.671886 227.477251 27.940703 226.317935 C 26.31772 225.227385 24.802935 223.979634 23.416022 222.604172 C 22.029109 221.218876 20.779904 219.705853 19.678243 218.074952 C 18.517564 216.355617 17.504428 214.528209 16.648674 212.63202 C 15.704392 210.5197 14.897819 208.358253 14.248626 206.137845 C 13.50107 203.622706 12.901057 201.078094 12.419081 198.503994 C 11.878086 195.576216 11.445291 192.628784 11.120694 189.671533 C 10.746916 186.301629 10.471501 182.931739 10.274776 179.552015 C 10.058378 175.739999 9.900997 171.918164 9.822307 168.096328 C 9.733781 163.802907 9.6846 159.519306 9.6846 155.225886 C 9.6846 155.225886 9.6846 155.225886 9.6846 155.225886 L 9.6846 97.014106 C 9.6846 97.014106 9.6846 97.014106 9.6846 97.014106 C 9.6846 92.720685 9.733781 88.437084 9.822307 84.143656 C 9.900997 80.321821 10.058378 76.509812 10.274776 72.687976 C 10.471501 69.308252 10.746916 65.938355 11.120694 62.578282 C 11.445291 59.6112 11.878086 56.663768 12.419081 53.735987 C 12.901057 51.161898 13.50107 48.617282 14.248626 46.102139 C 14.897819 43.891565 15.704392 41.720292 16.648674 39.607968 C 17.504428 37.711787 18.517564 35.894202 19.678243 34.165043 C 20.779904 32.543956 22.029109 31.030941 23.416022 29.645648 C 24.802935 28.260355 26.31772 27.012609 27.940703 25.922059 C 29.671886 24.762737 31.501429 23.750785 33.409665 22.896029 C 35.514626 21.952852 37.688439 21.147221 39.911433 20.498786 C 42.429517 19.761928 44.986944 19.152792 47.564048 18.681203 C 50.495253 18.131016 53.455967 17.698726 56.426518 17.384332 C 59.790522 17.010992 63.174195 16.735898 66.557868 16.539402 C 70.384173 16.323257 74.210479 16.175886 78.036784 16.087463 C 82.335234 15.99904 86.633683 15.949916 90.932125 15.959741 C 90.932125 15.959741 90.932125 15.959741 90.941963 15.959741 L 165.06803 15.959741 C 165.077876 15.959741 165.077876 15.959741 165.077876 15.959741 Z"/>
 </g>
 <g>
  <linearGradient id="_lgradient_38" x1="0" x2="0" y1="0" y2="1" gradientTransform="matrix(137.869832,0,0,137.969729,58.848129,55.500279)" gradientUnits="userSpaceOnUse">
   <stop offset="0%" style="stop-color:#fabd2f"/>
   <stop offset="50%" style="stop-color:#fe8019"/>
   <stop offset="100%" style="stop-color:#fe8019"/>
  </linearGradient>
  <path fill="url(#_lgradient_38)" fill-rule="evenodd" d="M 71.081397 58.113485 C 74.373529 60.412201 79.979725 63.867896 83.973241 66.986103 C 87.019636 69.83612 87.509542 71.23077 87.509542 75.767445 L 87.509542 128.045411 C 87.509542 141.967621 89.136734 152.066562 84.460128 162.611653 C 79.298778 174.249785 68.390602 177.801268 60.849067 188.122168 C 53.668258 197.002434 67.705829 192.766538 73.212749 189.982094 C 85.015399 184.014363 94.414953 180.675319 108.553728 179.132029 C 126.379334 178.779748 137.617562 179.54121 153.816895 179.177666 C 183.13482 179.177866 196.717961 150.581686 196.717961 113.716754 C 196.717961 82.665998 183.13482 55.499722 151.063435 55.649911 C 123.636362 55.522964 83.562217 55.503319 70.89124 55.500279 C 67.270239 55.499722 68.788897 56.521497 71.081397 58.113485 Z M 116.818735 74.517799 C 127.140497 74.537766 148.304363 74.827258 152.454887 76.841335 C 170.583595 87.023395 173.296241 99.235351 172.914626 116.634824 C 173.417413 132.378749 167.618178 149.354034 152.454887 157.404712 C 146.920855 160.090155 112.062928 160.090164 112.062928 160.090164 L 111.144186 74.533532 C 111.144186 74.533532 113.37816 74.511141 116.818735 74.517606 L 116.818735 74.517799 Z"/>
  <g opacity=".2">
   <path fill-rule="evenodd" d="M 116.818735 76.894848 C 127.140497 76.914815 148.304363 77.204307 152.454887 79.218384 C 170.583595 89.400444 173.296241 101.6124 172.914626 119.011874 C 173.417413 134.755798 167.618178 151.731084 152.454887 159.781762 C 146.920855 162.467204 112.062928 162.467213 112.062928 162.467213 L 111.144186 76.910581 C 111.144186 76.910581 113.37816 76.888238 116.818735 76.894656 L 116.818735 76.894848 Z"/>
  </g>
  <g opacity=".4" filter="url(#SZlusoIl8zDx4bEdZDV4vreYb6zLxjpJ)">
   <path fill-rule="evenodd" d="M 96.751896 119.791757 C 96.304726 120.014152 97.590511 123.158503 98.99895 125.121542 C 101.146019 128.114045 102.569235 129.867371 105.545125 132.577677 C 109.440338 136.125278 110.453942 136.715959 112.091296 138.371734 C 113.728655 140.027519 115.851857 143.144403 115.851857 143.144403 L 115.851857 191.391073 C 115.851857 194.702633 112.474326 196.796071 111.385605 197.194416 C 109.84883 197.756696 106.520087 198.837923 106.520087 198.837923 L 106.520087 200.5 L 124.85865 200.5 L 144.422879 200.5 L 144.422879 198.847208 C 144.422879 198.847208 140.546291 197.756705 139.009521 197.194416 C 137.920796 196.796071 135.157543 194.702406 135.11896 191.391073 L 135.11896 150.600538 L 135.11896 143.144403 L 135.11896 142.318007 C 135.11896 138.753703 138.276885 137.885541 139.520215 137.350346 C 141.20459 136.625309 143.613476 136.517648 144.432164 134.861873 C 145.250834 133.206088 143.398852 134.031741 142.788658 134.035477 C 136.909518 134.069707 121.590207 134.035477 121.590207 134.035477 C 117.590534 134.035477 113.689614 133.494315 110.457075 131.751281 C 108.172648 130.519494 105.998135 128.894331 103.910904 126.783619 L 97.355444 120.153881 C 97.048424 119.843388 96.8551 119.740415 96.751896 119.791757 Z M 197.061519 119.791757 C 196.95831 119.740411 196.765004 119.843384 196.457962 120.153876 L 189.902515 126.783615 C 187.815279 128.894322 185.640767 130.519485 183.356344 131.751272 C 180.123801 133.494306 176.232161 134.035477 172.232497 134.035467 C 172.232497 134.035467 156.903901 134.069698 151.024762 134.035467 C 150.414567 134.031668 148.562575 133.206088 149.381255 134.861863 C 150.199934 136.517648 152.608829 136.6253 154.293204 137.350346 C 155.536534 137.885532 158.694459 138.753703 158.694459 142.318007 L 158.694459 143.144403 L 158.694459 150.600529 L 158.694459 191.391064 C 158.655949 194.702406 155.892614 196.796062 154.803898 197.194416 C 153.267128 197.756696 149.455538 198.837923 149.455538 198.837923 L 149.455538 200.5 L 168.954769 200.5 L 187.293332 200.5 L 187.293332 198.837923 C 187.293332 198.837923 183.964589 197.756696 182.42781 197.194416 C 181.339084 196.796071 177.961557 194.702633 177.961557 191.391073 L 177.961557 143.144403 C 177.961557 143.144403 180.084764 140.027519 181.722123 138.371734 C 183.359473 136.715959 184.373081 136.125278 188.268294 132.577677 C 191.244175 129.867371 192.667391 128.114045 194.814464 125.121542 C 196.222908 123.158503 197.508684 120.014152 197.061519 119.791757 Z"/>
  </g>
  <linearGradient id="_lgradient_39" x1="0" x2="0" y1="0" y2="1" gradientTransform="matrix(100.490328,0,0,80.720821,96.661543,117.402129)" gradientUnits="userSpaceOnUse">
   <stop offset="0%" style="stop-color:#fb4934"/>
   <stop offset="100%" style="stop-color:#cc241d"/>
  </linearGradient>
  <path fill="url(#_lgradient_39)" fill-rule="evenodd" d="M 96.751896 117.414708 C 96.304726 117.637103 97.590511 120.781453 98.99895 122.744493 C 101.146019 125.736996 102.569235 127.490322 105.545125 130.200628 C 109.440338 133.748229 110.453942 134.33891 112.091296 135.994685 C 113.728655 137.650469 115.851857 140.767354 115.851857 140.767354 L 115.851857 189.014024 C 115.851857 192.325584 112.474326 194.419022 111.385605 194.817367 C 109.84883 195.379647 106.520087 196.460873 106.520087 196.460873 L 106.520087 198.122951 L 124.85865 198.122951 L 144.422879 198.122951 L 144.422879 196.470159 C 144.422879 196.470159 140.546291 195.379656 139.009521 194.817367 C 137.920796 194.419022 135.157543 192.325357 135.11896 189.014024 L 135.11896 148.223489 L 135.11896 140.767354 L 135.11896 139.940958 C 135.11896 136.376654 138.276885 135.508492 139.520215 134.973297 C 141.20459 134.24826 143.613476 134.140599 144.432164 132.484823 C 145.250834 130.829039 143.398852 131.654691 142.788658 131.658427 C 136.909518 131.692658 121.590207 131.658427 121.590207 131.658427 C 117.590534 131.658427 113.689614 131.117266 110.457075 129.374232 C 108.172648 128.142445 105.998135 126.517282 103.910904 124.40657 L 97.355444 117.776832 C 97.048424 117.466339 96.8551 117.363366 96.751896 117.414708 Z M 197.061519 117.414708 C 196.95831 117.363362 196.765004 117.466335 196.457962 117.776827 L 189.902515 124.406566 C 187.815279 126.517278 185.640767 128.142436 183.356344 129.374223 C 180.123801 131.117257 176.232161 131.658427 172.232497 131.658418 C 172.232497 131.658418 156.903901 131.692649 151.024762 131.658418 C 150.414567 131.654619 148.562575 130.829039 149.381255 132.484814 C 150.199934 134.140599 152.608829 134.248251 154.293204 134.973297 C 155.536534 135.508483 158.694459 136.376654 158.694459 139.940958 L 158.694459 140.767354 L 158.694459 148.22348 L 158.694459 189.014015 C 158.655949 192.325357 155.892614 194.419013 154.803898 194.817367 C 153.267128 195.379647 149.455538 196.460873 149.455538 196.460873 L 149.455538 198.122951 L 168.954769 198.122951 L 187.293332 198.122951 L 187.293332 196.460873 C 187.293332 196.460873 183.964589 195.379647 182.42781 194.817367 C 181.339084 194.419022 177.961557 192.325584 177.961557 189.014024 L 177.961557 140.767354 C 177.961557 140.767354 180.084764 137.650469 181.722123 135.994685 C 183.359473 134.33891 184.373081 133.748229 188.268294 130.200628 C 191.244175 127.490322 192.667391 125.736996 194.814464 122.744493 C 196.222908 120.781453 197.508684 117.637103 197.061519 117.414708 Z"/>
  <g opacity=".2">
   <path fill="#ebdbb2" fill-rule="evenodd" d="M 70.891226 55.5 C 67.463513 55.499473 68.681084 56.43353 70.761231 57.881692 C 70.811453 57.881274 70.838869 57.877041 70.891226 57.877049 C 83.562201 57.88009 123.638493 57.903311 151.065566 58.030258 C 182.758011 57.881844 196.371256 84.415226 196.689125 115.005155 C 196.692943 114.570902 196.716981 114.151098 196.716981 113.714492 C 196.716981 82.663734 183.136951 55.498377 151.065566 55.648566 C 123.638493 55.521619 83.562201 55.503041 70.891226 55.5 Z M 87.762702 143.970799 C 87.737575 150.574033 87.158682 156.529958 84.461763 162.611136 C 79.300412 174.249268 68.390657 177.80173 60.849122 188.122631 C 58.748761 190.72008 58.494066 192.172956 59.279898 192.890657 C 59.59875 192.22262 60.080128 191.450666 60.849122 190.49968 C 68.390657 180.178779 79.300412 176.626318 84.461763 164.988185 C 87.479648 158.183267 87.86373 151.551452 87.762702 143.970799 Z"/>
  </g>
 </g>
</svg>

<svg width="256" height="256" version="1.1" xmlns="http://www.w3.org/2000/svg">
  <defs>
    <linearGradient id="linearGradient31" x1=".5002" x2=".5002" y2="1" gradientTransform="matrix(244,0,0,228,5.986,12)" gradientUnits="userSpaceOnUse">
      <stop stop-color="#ebdbb2" stop-opacity=".2" offset="0"/>
      <stop stop-color="#ebdbb2" stop-opacity=".05" offset=".1"/>
      <stop stop-opacity="0" offset=".7036"/>
      <stop stop-opacity=".1" offset=".8975"/>
      <stop stop-opacity=".2" offset="1"/>
    </linearGradient>
    <linearGradient id="linearGradient6" x1="140" x2="140" y1="12" y2="240" gradientUnits="userSpaceOnUse">
      <stop stop-color="#3c3836" offset="0"/>
      <stop stop-color="#3c3836" offset="1"/>
    </linearGradient>
    <linearGradient id="_lgradient_38" x2="0" y2="1" gradientTransform="matrix(137.9 0 0 138 58.85 55.5)" gradientUnits="userSpaceOnUse">
      <stop stop-color="#fabd2f" offset="0"/>
      <stop stop-color="#fe8019" offset=".5"/>
      <stop stop-color="#fe8019" offset="1"/>
    </linearGradient>
    <linearGradient id="_lgradient_39" x2="0" y2="1" gradientTransform="matrix(100.5 0 0 80.72 96.66 117.4)" gradientUnits="userSpaceOnUse">
      <stop stop-color="#fb4934" offset="0"/>
      <stop stop-color="#cc241d" offset="1"/>
    </linearGradient>
  </defs>
  <path d="m165 12c72 0 85 15 85 87v56c0 70-13 85-85 85h-74c-72 0-85-15-85-85v-56c0-72 13-87 85-87z" fill="url(#linearGradient6)" style="isolation:isolate"/>
  <g transform="matrix(1.117 0 0 1.117 -14.97 -7.676)" style="isolation:isolate">
    <path d="m71.08 58.11c3.292 2.299 8.898 5.754 12.89 8.873 3.046 2.85 3.536 4.245 3.536 8.781v52.28c0 13.92 1.627 24.02-3.049 34.57-5.161 11.64-16.07 15.19-23.61 25.51-7.181 8.88 6.857 4.644 12.36 1.86 11.8-5.968 21.2-9.307 35.34-10.85 17.83-0.3523 29.06 0.4092 45.26 0.0456 29.32 2e-4 42.9-28.6 42.9-65.46 0-31.05-13.58-58.22-45.65-58.07-27.43-0.1269-67.5-0.1466-80.17-0.1496-3.621-5.57e-4 -2.102 1.021 0.1902 2.613zm45.74 16.4c10.32 0.01997 31.49 0.3095 35.64 2.324 18.13 10.18 20.84 22.39 20.46 39.79 0.5028 15.74-5.296 32.72-20.46 40.77-5.534 2.685-40.39 2.685-40.39 2.685l-0.9187-85.56s2.234-0.02239 5.675-0.01593z" fill="url(#_lgradient_38)" fill-rule="evenodd"/>
    <g fill-rule="evenodd" opacity=".2">
      <path d="m116.8 76.89c10.32 0.01997 31.49 0.3095 35.64 2.324 18.13 10.18 20.84 22.39 20.46 39.79 0.5028 15.74-5.296 32.72-20.46 40.77-5.534 2.685-40.39 2.685-40.39 2.685l-0.9187-85.56s2.234-0.02234 5.675-0.01592z"/>
      <path d="m70.89 55.5c-3.428-5.27e-4 -2.21 0.9335-0.13 2.382 0.05022-4.18e-4 0.07764-0.0047 0.13-0.0046 12.67 3e-3 52.75 0.02626 80.17 0.1532 31.69-0.1484 45.31 26.38 45.62 56.97 4e-3 -0.4343 0.0279-0.8541 0.0279-1.291 0-31.05-13.58-58.22-45.65-58.07-27.43-0.127-67.5-0.1456-80.17-0.1486zm16.87 88.47c-0.02513 6.603-0.604 12.56-3.301 18.64-5.161 11.64-16.07 15.19-23.61 25.51-2.1 2.597-2.355 4.05-1.569 4.768 0.3189-0.668 0.8002-1.44 1.569-2.391 7.542-10.32 18.45-13.87 23.61-25.51 3.018-6.805 3.402-13.44 3.301-21.02z" fill="#ebdbb2"/>
    </g>
    <g filter="url(#SZlusoIl8zDx4bEdZDV4vreYb6zLxjpJ)" opacity=".4">
      <path d="m96.75 119.8c-0.4472 0.2224 0.8386 3.367 2.247 5.33 2.147 2.992 3.57 4.746 6.546 7.456 3.895 3.548 4.909 4.138 6.546 5.794 1.637 1.656 3.761 4.773 3.761 4.773v48.25c0 3.312-3.378 5.405-4.466 5.803-1.537 0.5623-4.866 1.644-4.866 1.644v1.662h37.9v-1.653s-3.877-1.091-5.413-1.653c-1.089-0.3984-3.852-2.492-3.891-5.803v-49.07c0-3.564 3.158-4.432 4.401-4.968 1.684-0.725 4.093-0.8327 4.912-2.488 0.8187-1.656-1.033-0.8301-1.644-0.8264-5.879 0.0342-21.2 0-21.2 0-4 0-7.901-0.5412-11.13-2.284-2.284-1.232-4.459-2.857-6.546-4.968l-6.555-6.63c-0.307-0.3105-0.5003-0.4135-0.6035-0.3621zm100.3 0c-0.1032-0.0513-0.2965 0.0516-0.6036 0.3621l-6.555 6.63c-2.087 2.111-4.262 3.736-6.546 4.968-3.233 1.743-7.124 2.284-11.12 2.284 0 0-15.33 0.0342-21.21 0-0.6102-4e-3 -2.462-0.8294-1.644 0.8264 0.8187 1.656 3.228 1.763 4.912 2.488 1.243 0.5352 4.401 1.403 4.401 4.968v49.07c-0.0385 3.311-2.802 5.405-3.891 5.803-1.537 0.5623-5.348 1.644-5.348 1.644v1.662h37.84v-1.662s-3.329-1.081-4.866-1.644c-1.089-0.3984-4.466-2.492-4.466-5.803v-48.25s2.123-3.117 3.761-4.773c1.637-1.656 2.651-2.246 6.546-5.794 2.976-2.71 4.399-4.464 6.546-7.456 1.408-1.963 2.694-5.107 2.247-5.33z" fill-rule="evenodd"/>
    </g>
    <path d="m96.75 117.4c-0.4472 0.2224 0.8386 3.367 2.247 5.33 2.147 2.993 3.57 4.746 6.546 7.456 3.895 3.548 4.909 4.138 6.546 5.794 1.637 1.656 3.761 4.773 3.761 4.773v48.25c0 3.312-3.378 5.405-4.466 5.803-1.537 0.5623-4.866 1.644-4.866 1.644v1.662h37.9v-1.653s-3.877-1.09-5.413-1.653c-1.089-0.3984-3.852-2.492-3.891-5.803v-49.07c0-3.564 3.158-4.432 4.401-4.968 1.684-0.725 4.093-0.8327 4.912-2.488 0.8187-1.656-1.033-0.8301-1.644-0.8264-5.879 0.0342-21.2 0-21.2 0-4 0-7.901-0.5412-11.13-2.284-2.284-1.232-4.459-2.857-6.546-4.968l-6.555-6.63c-0.307-0.3105-0.5003-0.4135-0.6035-0.3621zm100.3 0c-0.1032-0.0513-0.2965 0.0516-0.6036 0.3621l-6.555 6.63c-2.087 2.111-4.262 3.736-6.546 4.968-3.233 1.743-7.124 2.284-11.12 2.284 0 0-15.33 0.0342-21.21 0-0.6102-4e-3 -2.462-0.8294-1.644 0.8264 0.8187 1.656 3.228 1.763 4.912 2.488 1.243 0.5352 4.401 1.403 4.401 4.968v49.07c-0.0385 3.311-2.802 5.405-3.891 5.803-1.537 0.5623-5.348 1.644-5.348 1.644v1.662h37.84v-1.662s-3.329-1.081-4.866-1.644c-1.089-0.3984-4.466-2.492-4.466-5.803v-48.25s2.123-3.117 3.761-4.773c1.637-1.656 2.651-2.246 6.546-5.794 2.976-2.71 4.399-4.464 6.546-7.456 1.408-1.963 2.694-5.107 2.247-5.33z" fill="url(#_lgradient_39)" fill-rule="evenodd"/>
  </g>
  <path d="m91 12c-72 0-85 15-85 87v56c0 70 13 85 85 85h74c72 0 85-15 85-85v-56c0-72-13-87-85-87zm0 4h74c68 0 80 15 80 83v56c0 66-12 81-80 81h-74c-68 0-80-15-80-81v-56c0-68 12-83 80-83z" fill="url(#linearGradient31)" style="isolation:isolate"/>
</svg>
